icon/pk/pushpin.svg

<svg width="48" height="48" fill="none" xmlns="http://www.w3.org/2000/svg"><path d="M32 4H16l4 3-4 13s-6 4-6 8h10l4 16 4-16h10c0-4-4-6.833-6-8L28 7l4-3Z" fill="#2F88FF" stroke="#000" stroke-width="4" stroke-linecap="round" stroke-linejoin="round"/></svg>

<svg viewBox="0 0 48 48" fill="none" xmlns="http://www.w3.org/2000/svg" height="1em" width="1em">
  <path d="M32 4H16L20 7L16 20C16 20 10 24 10 28H20L24 44L28 28H38C38 24 34 21.1667 32 20L28 7L32 4Z" fill="#2F88FF" stroke="black" stroke-width="4" stroke-linecap="round" stroke-linejoin="round"/>
</svg>
